X:162
T:Nigger Quadrilles #5. Le4.162, The
Q:1/4=100
L:1/8
B:L.Leadley MS#4 c1850
Z:vmp.Mike Hicken 2016 www.village-music-project.org.uk
N: * This note is not clear in the original.
M:2/4
K:G
!p!D|BBAG|FAAB|cc EF|G3D|BBAG|FAAB|dc AF|
G3 !f!d|bbag|faab|c'c'ef|g3d|bbag|faab|d'c'af|g3 !fermata!||
!p!D|D/G/B/G/ BB|D/G/B/G/ BB|D/F/A/F/ AA|D/F/A/F/ AA|D/A/c/A/ cc|D/G/B/G/ BB|\
D/F/A/F/ A/c/B/A/|GB G2||
!f! d2A2|GG/B/ A/F/D|!p!G/D/G/B/ A/D/A/c/|BAG2|\
!f!d2A2|G/F/!>(!G/B/ A/F/!>)!D|!p! G/D/G/B/ A/D/A/c/|BAG "_D.C."|]

